packages/kaspersky-hexa-ui-icons/src/iconsSVGs/24/MicrosoftEdgeColor.svg

<svg width="24" height="24" viewBox="0 0 24 24" fill="none" xmlns="http://www.w3.org/2000/svg">
<path d="M20.0512 16.8864C19.7845 17.0258 19.5095 17.1487 19.2277 17.2544C18.3307 17.59 17.3805 17.761 16.4228 17.7591C12.7257 17.7591 9.50517 15.2159 9.50517 11.9525C9.5099 11.5147 9.63137 11.0862 9.85702 10.7111C10.0827 10.336 10.4044 10.028 10.7888 9.81873C7.44488 9.95936 6.58545 13.444 6.58545 15.4855C6.58545 21.2577 11.9053 21.8429 13.0515 21.8429C13.6695 21.8429 14.6016 21.6632 15.161 21.4867L15.2633 21.4523C17.416 20.7081 19.2512 19.2532 20.4668 17.327C20.504 17.2684 20.5207 17.199 20.514 17.1298C20.5074 17.0606 20.478 16.9956 20.4303 16.9451C20.3826 16.8946 20.3195 16.8614 20.2508 16.8507C20.1821 16.8401 20.1119 16.8526 20.0512 16.8864Z" fill="url(#paint0_linear_21654_2190)"/>
<path opacity="0.35" d="M20.0512 16.8864C19.7845 17.0258 19.5095 17.1487 19.2277 17.2544C18.3307 17.59 17.3805 17.761 16.4228 17.7591C12.7257 17.7591 9.50517 15.2159 9.50517 11.9525C9.5099 11.5147 9.63137 11.0862 9.85702 10.7111C10.0827 10.336 10.4044 10.028 10.7888 9.81873C7.44488 9.95936 6.58545 13.444 6.58545 15.4855C6.58545 21.2577 11.9053 21.8429 13.0515 21.8429C13.6695 21.8429 14.6016 21.6632 15.161 21.4867L15.2633 21.4523C17.416 20.7081 19.2512 19.2532 20.4668 17.327C20.504 17.2684 20.5207 17.199 20.514 17.1298C20.5074 17.0606 20.478 16.9956 20.4303 16.9451C20.3826 16.8946 20.3195 16.8614 20.2508 16.8507C20.1821 16.8401 20.1119 16.8526 20.0512 16.8864Z" fill="url(#paint1_radial_21654_2190)"/>
<path d="M10.2586 20.8618C9.56173 20.4293 8.9578 19.8626 8.48193 19.1945C7.93954 18.4514 7.5663 17.5987 7.38839 16.696C7.21048 15.7934 7.2322 14.8628 7.45204 13.9694C7.67188 13.0761 8.0845 12.2416 8.66097 11.5247C9.23745 10.8077 9.96381 10.2255 10.7891 9.81894C11.0329 9.70409 11.4493 9.49626 12.0032 9.50642C12.3935 9.50926 12.7778 9.60244 13.1261 9.77866C13.4743 9.95487 13.777 10.2093 14.0104 10.5221C14.3259 10.9434 14.4999 11.4538 14.5073 11.98C14.5073 11.9636 16.4184 5.76086 8.25691 5.76086C4.827 5.76086 2.00651 9.01576 2.00651 11.8714C1.99298 13.382 2.3162 14.8767 2.95267 16.2467C3.99283 18.466 5.8118 20.2261 8.06416 21.1927C10.3165 22.1593 12.8454 22.2651 15.1706 21.49C14.3565 21.7467 13.4963 21.8237 12.6495 21.7158C11.8027 21.6079 10.9894 21.3176 10.2656 20.865L10.2586 20.8618Z" fill="url(#paint2_linear_21654_2190)"/>
<path opacity="0.41" d="M10.2586 20.8618C9.56173 20.4293 8.9578 19.8626 8.48193 19.1945C7.93954 18.4514 7.5663 17.5987 7.38839 16.696C7.21048 15.7934 7.2322 14.8628 7.45204 13.9694C7.67188 13.0761 8.0845 12.2416 8.66097 11.5247C9.23745 10.8077 9.96381 10.2255 10.7891 9.81894C11.0329 9.70409 11.4493 9.49626 12.0032 9.50642C12.3935 9.50926 12.7778 9.60244 13.1261 9.77866C13.4743 9.95487 13.777 10.2093 14.0104 10.5221C14.3259 10.9434 14.4999 11.4538 14.5073 11.98C14.5073 11.9636 16.4184 5.76086 8.25691 5.76086C4.827 5.76086 2.00651 9.01576 2.00651 11.8714C1.99298 13.382 2.3162 14.8767 2.95267 16.2467C3.99283 18.466 5.8118 20.2261 8.06416 21.1927C10.3165 22.1593 12.8454 22.2651 15.1706 21.49C14.3565 21.7467 13.4963 21.8237 12.6495 21.7158C11.8027 21.6079 10.9894 21.3176 10.2656 20.865L10.2586 20.8618Z" fill="url(#paint3_radial_21654_2190)"/>
<path d="M13.8991 13.6299C13.8358 13.712 13.6413 13.8253 13.6413 14.0722C13.6413 14.2761 13.7741 14.4722 14.01 14.637C15.1336 15.4183 17.2517 15.3152 17.2571 15.3152C18.0896 15.3132 18.9063 15.0879 19.6221 14.6628C20.3442 14.2412 20.9435 13.6381 21.3606 12.9134C21.7776 12.1887 21.9979 11.3675 21.9996 10.5313C22.0199 8.78042 21.3746 7.61628 21.1136 7.10062C19.4581 3.86213 15.8844 1.99951 11.9982 1.99951C9.37005 1.99925 6.84743 3.03356 4.97594 4.87874C3.10445 6.72391 2.03452 9.23163 1.99756 11.8595C2.03506 9.00465 4.87274 6.69903 8.24796 6.69903C8.52141 6.69903 10.0809 6.7256 11.5294 7.4858C12.8061 8.15616 13.4749 8.96558 13.9397 9.76798C14.4226 10.6016 14.5085 11.6548 14.5085 12.0744C14.5085 12.4939 14.2944 13.1159 13.8991 13.6299Z" fill="url(#paint4_radial_21654_2190)"/>
<path d="M13.8991 13.6299C13.8358 13.712 13.6413 13.8253 13.6413 14.0722C13.6413 14.2761 13.7741 14.4722 14.01 14.637C15.1336 15.4183 17.2517 15.3152 17.2571 15.3152C18.0896 15.3132 18.9063 15.0879 19.6221 14.6628C20.3442 14.2412 20.9435 13.6381 21.3606 12.9134C21.7776 12.1887 21.9979 11.3675 21.9996 10.5313C22.0199 8.78042 21.3746 7.61628 21.1136 7.10062C19.4581 3.86213 15.8844 1.99951 11.9982 1.99951C9.37005 1.99925 6.84743 3.03356 4.97594 4.87874C3.10445 6.72391 2.03452 9.23163 1.99756 11.8595C2.03506 9.00465 4.87274 6.69903 8.24796 6.69903C8.52141 6.69903 10.0809 6.7256 11.5294 7.4858C12.8061 8.15616 13.4749 8.96558 13.9397 9.76798C14.4226 10.6016 14.5085 11.6548 14.5085 12.0744C14.5085 12.4939 14.2944 13.1159 13.8991 13.6299Z" fill="url(#paint5_radial_21654_2190)"/>
<defs>
<linearGradient id="paint0_linear_21654_2190" x1="6.58545" y1="15.8324" x2="20.5192" y2="15.8324" gradientUnits="userSpaceOnUse">
<stop stop-color="#0C59A4"/>
<stop offset="1" stop-color="#114A8B"/>
</linearGradient>
<radialGradient id="paint1_radial_21654_2190" cx="0" cy="0" r="1" gradientUnits="userSpaceOnUse" gradientTransform="translate(14.2813 15.9422) scale(7.45204 7.07944)">
<stop offset="0.72" stop-opacity="0"/>
<stop offset="0.95" stop-opacity="0.53"/>
<stop offset="1"/>
</radialGradient>
<linearGradient id="paint2_linear_21654_2190" x1="13.9315" y1="9.78847" x2="5.22859" y2="19.268" gradientUnits="userSpaceOnUse">
<stop stop-color="#1B9DE2"/>
<stop offset="0.16" stop-color="#1595DF"/>
<stop offset="0.67" stop-color="#0680D7"/>
<stop offset="1" stop-color="#0078D4"/>
</linearGradient>
<radialGradient id="paint3_radial_21654_2190" cx="0" cy="0" r="1" gradientUnits="userSpaceOnUse" gradientTransform="translate(7.51347 17.5482) rotate(-81.3844) scale(11.2059 9.05323)">
<stop offset="0.76" stop-opacity="0"/>
<stop offset="0.95" stop-opacity="0.5"/>
<stop offset="1"/>
</radialGradient>
<radialGradient id="paint4_radial_21654_2190" cx="0" cy="0" r="1" gradientUnits="userSpaceOnUse" gradientTransform="translate(4.0182 5.70106) rotate(92.2906) scale(15.8285 33.7114)">
<stop stop-color="#35C1F1"/>
<stop offset="0.11" stop-color="#34C1ED"/>
<stop offset="0.23" stop-color="#2FC2DF"/>
<stop offset="0.31" stop-color="#2BC3D2"/>
<stop offset="0.67" stop-color="#36C752"/>
</radialGradient>
<radialGradient id="paint5_radial_21654_2190" cx="0" cy="0" r="1" gradientUnits="userSpaceOnUse" gradientTransform="translate(20.7544 8.04725) rotate(73.7398) scale(7.60518 6.18453)">
<stop stop-color="#66EB6E"/>
<stop offset="1" stop-color="#66EB6E" stop-opacity="0"/>
</radialGradient>
</defs>
</svg>

<svg xmlns="http://www.w3.org/2000/svg" width="24" height="24" fill="none" viewBox="0 0 24 24"><path fill="url(#a)" d="M20.0512 16.8864a7.4 7.4 0 0 1-.8235.368 7.96 7.96 0 0 1-2.8049.5047c-3.6971 0-6.9176-2.5432-6.9176-5.8066a2.46 2.46 0 0 1 1.2836-2.1338c-3.344.1407-4.2033 3.6253-4.2033 5.6668 0 5.7722 5.3198 6.3574 6.466 6.3574.618 0 1.5501-.1797 2.1095-.3562l.1023-.0344a10.027 10.027 0 0 0 5.2035-4.1253.312.312 0 0 0 .0472-.1972.312.312 0 0 0-.2632-.2791.312.312 0 0 0-.1996.0357"/><path fill="url(#b)" d="M10.2586 20.8618a6.19 6.19 0 0 1-1.7767-1.6673 6.306 6.306 0 0 1-1.0299-5.2251 6.306 6.306 0 0 1 3.3371-4.1505c.2438-.1148.6602-.3226 1.2141-.3125a2.528 2.528 0 0 1 2.0072 1.0157c.3155.4213.4895.9317.4969 1.4579 0-.0164 1.9111-6.2191-6.2504-6.2191-3.4299 0-6.2504 3.2549-6.2504 6.1105a10.17 10.17 0 0 0 .9462 4.3753A10.001 10.001 0 0 0 15.1706 21.49a5.903 5.903 0 0 1-4.905-.625z"/><path fill="url(#c)" d="M13.8991 13.6299c-.0633.0821-.2578.1954-.2578.4423 0 .2039.1328.4.3687.5648 1.1236.7813 3.2417.6782 3.2471.6782a4.654 4.654 0 0 0 2.365-.6524 4.796 4.796 0 0 0 2.3775-4.1315c.0203-1.7509-.625-2.915-.886-3.4307-1.6555-3.2385-5.2292-5.101-9.1154-5.101a10.0006 10.0006 0 0 0-10.0006 9.8599C2.035 9.0046 4.8727 6.699 8.248 6.699c.2734 0 1.8329.0266 3.2814.7868 1.2767.6704 1.9455 1.4798 2.4103 2.2822.4829.8336.5688 1.8868.5688 2.3064s-.2141 1.0415-.6094 1.5555"/><path fill="url(#d)" d="M13.8991 13.6299c-.0633.0821-.2578.1954-.2578.4423 0 .2039.1328.4.3687.5648 1.1236.7813 3.2417.6782 3.2471.6782a4.654 4.654 0 0 0 2.365-.6524 4.796 4.796 0 0 0 2.3775-4.1315c.0203-1.7509-.625-2.915-.886-3.4307-1.6555-3.2385-5.2292-5.101-9.1154-5.101a10.0006 10.0006 0 0 0-10.0006 9.8599C2.035 9.0046 4.8727 6.699 8.248 6.699c.2734 0 1.8329.0266 3.2814.7868 1.2767.6704 1.9455 1.4798 2.4103 2.2822.4829.8336.5688 1.8868.5688 2.3064s-.2141 1.0415-.6094 1.5555"/><defs><radialGradient id="c" cx="0" cy="0" r="1" gradientTransform="rotate(92.29 -.73 4.78)scale(15.8285 33.7114)" gradientUnits="userSpaceOnUse"><stop stop-color="#35c1f1"/><stop offset="0" stop-color="#34c1ed"/><stop offset="0" stop-color="#2fc2df"/><stop offset="0" stop-color="#2bc3d2"/><stop offset="1" stop-color="#36c752"/></radialGradient><radialGradient id="d" cx="0" cy="0" r="1" gradientTransform="rotate(73.74 5.012 17.86)scale(7.60518 6.18453)" gradientUnits="userSpaceOnUse"><stop stop-color="#66eb6e"/><stop offset="1" stop-color="#66eb6e" stop-opacity="0"/></radialGradient><linearGradient id="a" x1="7" x2="21" y1="16" y2="16" gradientUnits="userSpaceOnUse"><stop stop-color="#0c59a4"/><stop offset="1" stop-color="#114a8b"/></linearGradient><linearGradient id="b" x1="14" x2="5" y1="10" y2="19" gradientUnits="userSpaceOnUse"><stop stop-color="#1b9de2"/><stop offset="0" stop-color="#1595df"/><stop offset="1" stop-color="#0680d7"/><stop offset="1" stop-color="#0078d4"/></linearGradient></defs></svg>
